X:192
T:Slow March. JGi.192
M:C|
L:1/8
Q:1/4=90
S:Joshua Gibbons MS,1823,Tealby,Lincs.
R:march
O:Tealby,Lincolnshire
Z:VMP/R.Greig, 2009
K:G
D2|G2B>AG2d>c|Bgfed2cB|cded cBAG|F>E A/G/F/E/D2D>D|
G2B>AG2d>c|Bdefg2ag|gfed fed^c|d2d>dd2:|
|:d>c|B2g>d edcB|c2A>AA2cB|ABce dcBA|B2G>GG2D>D|
G2B>Gd2e>f|g2f>ed2c2|Bdgd ecAF|G2G>GG2:|

